; generated by PrusaSlicer 2.7.1+MacOS-arm64 on 2024-02-29 at 19:27:24 UTC


;
;
; 

; external perimeters extrusion width = 0.60mm
; perimeters extrusion width = 0.50mm
; infill extrusion width = 0.50mm
; solid infill extrusion width = 0.50mm
; top infill extrusion width = 0.45mm
; first layer extrusion width = 0.42mm

M73 P0 R16
M73 Q0 S16
M201 X1000 Y1000 Z200 E5000 ; sets maximum accelerations, mm/sec^2
M203 X200 Y200 Z12 E120 ; sets maximum feedrates, mm / sec
M204 S1250 T1250 ; sets acceleration (S) and retract acceleration (R), mm/sec^2
M205 X8.00 Y8.00 Z0.40 E4.50 ; sets the jerk limits, mm/sec
M205 S0 T0 ; sets the minimum extruding and travel feed rate, mm/sec

; printing object MCE_hashioki.stl id:0 copy 0
; stop printing object MCE_hashioki.stl id:0 copy 0

;TYPE:Custom
M862.3 P "MK3S" ; printer model check
M862.1 P0.4 ; nozzle diameter check
M115 U3.13.2 ; tell printer latest fw version
G90 ; use absolute coordinates
M83 ; extruder relative mode
M104 S255 ; set extruder temp
M140 S100 ; set bed temp
M190 S100 ; wait for bed temp
M109 S255 ; wait for extruder temp
G28 W ; home all without mesh bed level
G80 X103.007 Y95.7073 W43.9854 H18.5854 ; mesh bed levelling

G1 Z0.2 F720
G1 Y-3 F1000 ; go outside print area
G92 E0
G1 X60 E9 F1000 ; intro line
G1 X100 E12.5 F1000 ; intro line
M73 P0 R15
M73 Q0 S15

G92 E0
M221 S95

; Don't change E values below. Excessive value can damage the printer.

M907 E538 ; set extruder motor current
G21 ; set units to millimeters
G90 ; use absolute coordinates
M83 ; use relative distances for extrusion
M900 K0.04 ; Filament gcode LA 1.5
M900 K20 ; Filament gcode LA 1.0

M107
;LAYER_CHANGE
;Z:0.2
;HEIGHT:0.2
;BEFORE_LAYER_CHANGE
G92 E0.0
;0.2


G1 E-.8 F2100
G1 Z.2 F720
;AFTER_LAYER_CHANGE
;0.2
G1 X103.589 Y97.233 F10800
G1 Z.2 F720
G1 E.8 F2100
M204 S800
;TYPE:Skirt/Brim
;WIDTH:0.42
G1 F1200
G1 X104.655 Y96.219 E.04613
G1 X105.95 Y95.896 E.04185
G1 X144.05 Y95.896 E1.1946
G1 X145.467 Y96.289 E.04611
G1 X146.481 Y97.355 E.04613
G1 X146.804 Y98.65 E.04185
G1 X146.804 Y111.35 E.3982
M73 Q1 S15
G1 X146.411 Y112.767 E.04611
M73 P1 R15
G1 X145.345 Y113.781 E.04613
G1 X144.05 Y114.104 E.04185
G1 X105.95 Y114.104 E1.1946
G1 X104.533 Y113.711 E.04611
G1 X103.519 Y112.645 E.04613
G1 X103.196 Y111.35 E.04185
G1 X103.196 Y98.65 E.3982
G1 X103.573 Y97.29 E.04425
M204 S1000
G1 X103.947 Y97.402 F10800
M204 S800
G1 F1200
G1 X103.965 Y97.343 E.00193
G1 X105.01 Y96.467 E.04275
G1 X105.95 Y96.273 E.03009
G1 X144.05 Y96.273 E1.1946
G1 X145.357 Y96.665 E.04278
G1 X146.233 Y97.71 E.04275
G1 X146.427 Y98.65 E.03009
G1 X146.427 Y111.35 E.3982
G1 X146.035 Y112.657 E.04278
G1 X144.99 Y113.533 E.04275
G1 X144.05 Y113.727 E.03009
G1 X105.95 Y113.727 E1.1946
G1 X104.643 Y113.335 E.04278
G1 X103.767 Y112.29 E.04275
G1 X103.573 Y111.35 E.03009
G1 X103.573 Y98.65 E.3982
G1 X103.929 Y97.46 E.03895
M204 S1000
; printing object MCE_hashioki.stl id:0 copy 0
;WIPE_START
G1 F8640
G1 X103.947 Y97.402 E-.01402
G1 X103.965 Y97.343 E-.01424
G1 X105.01 Y96.467 E-.31486
G1 X105.95 Y96.273 E-.22162
M73 Q2 S15
G1 X106.969 Y96.273 E-.23526
;WIPE_END
G1 Z.6 F720
G1 X138.28 Y99.437 F10800
G1 Z.2 F720
M73 P2 R15
G1 E.8 F2100
M204 S800
;TYPE:Perimeter
;WIDTH:0.419999
G1 F1200
G1 X143.263 Y99.437 E.15624
G1 X143.263 Y101.929 E.07813
G1 X143.263 Y110.563 E.27071
G1 X138.28 Y110.563 E.15624
G1 X138.28 Y99.497 E.34697
M204 S1000
G1 X137.903 Y99.06 F10800
M204 S800
;TYPE:External perimeter
G1 F1200
G1 X143.64 Y99.06 E.17988
G1 X143.64 Y101.929 E.08996
G1 X143.64 Y110.94 E.28253
G1 X137.903 Y110.94 E.17988
G1 X137.903 Y99.12 E.37061
M204 S1000
;WIPE_START
G1 F8640
G1 X137.903 Y99.06 E-.01385
G1 X141.308 Y99.06 E-.78615
;WIPE_END
G1 Z.6 F720
G1 X142.329 Y99.607 F10800
G1 Z.2 F720
G1 E.8 F2100
M204 S800
;TYPE:Solid infill
;WIDTH:0.420999
G1 F1200
G1 X142.924 Y100.201 E.02643
G1 X142.924 Y100.736 E.01682
G1 X141.964 Y99.776 E.04268
G1 X141.429 Y99.776 E.01682
G1 X142.924 Y101.271 E.06647
G1 X142.924 Y101.806 E.01682
G1 X140.894 Y99.776 E.09025
G1 X140.36 Y99.776 E.01679
G1 X142.924 Y102.34 E.11399
G1 X142.924 Y102.875 E.01682
G1 X139.825 Y99.776 E.13778
G1 X139.29 Y99.776 E.01682
G1 X142.924 Y103.41 E.16156
G1 X142.924 Y103.944 E.01679
G1 X138.756 Y99.776 E.18531
G1 X138.619 Y99.776 E.00431
G1 X138.619 Y100.174 E.01251
G1 X142.924 Y104.479 E.1914
G1 X142.924 Y105.014 E.01682
G1 X138.619 Y100.709 E.1914
G1 X138.619 Y101.244 E.01682
G1 X142.924 Y105.548 E.19137
G1 X142.924 Y106.083 E.01682
G1 X138.619 Y101.778 E.1914
G1 X138.619 Y102.313 E.01682
G1 X142.924 Y106.618 E.1914
G1 X142.924 Y107.152 E.01679
G1 X138.619 Y102.848 E.19137
G1 X138.619 Y103.382 E.01679
G1 X142.924 Y107.687 E.1914
G1 X142.924 Y108.222 E.01682
G1 X138.619 Y103.917 E.1914
G1 X138.619 Y104.452 E.01682
G1 X142.924 Y108.756 E.19137
G1 X142.924 Y109.291 E.01682
G1 X138.619 Y104.986 E.1914
G1 X138.619 Y105.521 E.01682
G1 X142.924 Y109.826 E.1914
G1 X142.924 Y110.224 E.01251
M73 Q3 S15
G1 X142.787 Y110.224 E.00431
G1 X138.619 Y106.056 E.18531
G1 X138.619 Y106.591 E.01682
M73 P3 R15
G1 X142.252 Y110.224 E.16152
G1 X141.717 Y110.224 E.01682
G1 X138.619 Y107.125 E.13776
G1 X138.619 Y107.66 E.01682
G1 X141.183 Y110.224 E.11399
G1 X140.648 Y110.224 E.01682
G1 X138.619 Y108.195 E.09021
G1 X138.619 Y108.729 E.01679
G1 X140.113 Y110.224 E.06644
G1 X139.579 Y110.224 E.01679
G1 X138.619 Y109.264 E.04268
G1 X138.619 Y109.799 E.01682
G1 X139.214 Y110.393 E.02643
M204 S1000
;WIPE_START
G1 F8640
G1 X138.619 Y109.799 E-.19413
G1 X138.619 Y109.264 E-.12353
G1 X139.579 Y110.224 E-.31348
G1 X140.113 Y110.224 E-.1233
G1 X139.974 Y110.084 E-.04556
;WIPE_END
G1 Z.6 F720
G1 X111.72 Y110.563 F10800
G1 Z.2 F720
G1 E.8 F2100
M204 S800
;TYPE:Perimeter
;WIDTH:0.419999
G1 F1200
G1 X106.737 Y110.563 E.15624
G1 X106.737 Y99.437 E.34885
G1 X111.72 Y99.437 E.15624
G1 X111.72 Y110.503 E.34697
M204 S1000
G1 X112.097 Y110.94 F10800
M204 S800
;TYPE:External perimeter
G1 F1200
G1 X106.36 Y110.94 E.17988
G1 X106.36 Y99.06 E.37249
G1 X112.097 Y99.06 E.17988
G1 X112.097 Y110.88 E.37061
M204 S1000
;WIPE_START
G1 F8640
G1 X112.097 Y110.94 E-.01385
G1 X108.692 Y110.94 E-.78615
;WIPE_END
G1 Z.6 F720
G1 X110.786 Y99.607 F10800
G1 Z.2 F720
G1 E.8 F2100
M204 S800
;TYPE:Solid infill
;WIDTH:0.420999
G1 F1200
G1 X111.381 Y100.201 E.02643
G1 X111.381 Y100.736 E.01682
G1 X110.421 Y99.776 E.04268
G1 X109.887 Y99.776 E.01679
G1 X111.381 Y101.271 E.06644
G1 X111.381 Y101.806 E.01682
G1 X109.352 Y99.776 E.09023
G1 X108.817 Y99.776 E.01682
G1 X111.381 Y102.34 E.11399
G1 X111.381 Y102.875 E.01682
G1 X108.283 Y99.776 E.13776
G1 X107.748 Y99.776 E.01682
G1 X111.381 Y103.41 E.16154
G1 X111.381 Y103.944 E.01679
G1 X107.213 Y99.776 E.18531
G1 X107.076 Y99.776 E.00431
G1 X107.076 Y100.174 E.01251
G1 X111.381 Y104.479 E.1914
G1 X111.381 Y105.014 E.01682
G1 X107.076 Y100.709 E.1914
G1 X107.076 Y101.244 E.01682
G1 X111.381 Y105.548 E.19137
G1 X111.381 Y106.083 E.01682
G1 X107.076 Y101.778 E.1914
G1 X107.076 Y102.313 E.01682
M73 Q4 S15
G1 X111.381 Y106.618 E.1914
G1 X111.381 Y107.152 E.01679
G1 X107.076 Y102.848 E.19137
M73 P4 R15
G1 X107.076 Y103.382 E.01679
G1 X111.381 Y107.687 E.1914
G1 X111.381 Y108.222 E.01682
G1 X107.076 Y103.917 E.1914
G1 X107.076 Y104.452 E.01682
G1 X111.381 Y108.756 E.19137
G1 X111.381 Y109.291 E.01682
G1 X107.076 Y104.986 E.1914
G1 X107.076 Y105.521 E.01682
G1 X111.381 Y109.826 E.1914
G1 X111.381 Y110.224 E.01251
G1 X111.244 Y110.224 E.00431
G1 X107.076 Y106.056 E.18531
G1 X107.076 Y106.591 E.01682
G1 X110.709 Y110.224 E.16152
G1 X110.175 Y110.224 E.01679
G1 X107.076 Y107.125 E.13778
G1 X107.076 Y107.66 E.01682
G1 X109.64 Y110.224 E.11399
G1 X109.105 Y110.224 E.01682
G1 X107.076 Y108.195 E.09021
G1 X107.076 Y108.729 E.01679
G1 X108.571 Y110.224 E.06647
G1 X108.036 Y110.224 E.01682
G1 X107.076 Y109.264 E.04268
G1 X107.076 Y109.799 E.01682
G1 X107.671 Y110.393 E.02643
M204 S1000
; stop printing object MCE_hashioki.stl id:0 copy 0
;LAYER_CHANGE
;Z:0.5
;HEIGHT:0.3
;BEFORE_LAYER_CHANGE
G92 E0.0
;0.5


;WIPE_START
G1 F8640
G1 X107.076 Y109.799 E-.19413
G1 X107.076 Y109.264 E-.12353
G1 X108.036 Y110.224 E-.31348
G1 X108.571 Y110.224 E-.12353
G1 X108.432 Y110.085 E-.04533
;WIPE_END
G1 Z.5 F720
;AFTER_LAYER_CHANGE
;0.5
M140 S110 ; set bed temperature
G1 Z.9
G1 X108.432 Y114.104 F10800
G1 Z.5 F720
G1 E.8 F2100
;TYPE:Skirt/Brim
;WIDTH:0.42
G1 F2268
G1 X105.95 Y114.104 E.11009
G1 X104.533 Y113.711 E.06522
G1 X103.519 Y112.645 E.06526
G1 X103.196 Y111.35 E.0592
G1 X103.196 Y98.65 E.56331
G1 X103.589 Y97.233 E.06522
G1 X104.655 Y96.219 E.06526
G1 X105.95 Y95.896 E.0592
G1 X144.05 Y95.896 E1.68992
G1 X145.467 Y96.289 E.06522
G1 X146.481 Y97.355 E.06526
G1 X146.804 Y98.65 E.0592
G1 X146.804 Y111.35 E.56331
G1 X146.411 Y112.767 E.06522
G1 X145.345 Y113.781 E.06526
G1 X144.05 Y114.104 E.0592
G1 X108.492 Y114.104 E1.57717
G1 X108.492 Y113.727 F10800
G1 F2268
G1 X105.95 Y113.727 E.11275
G1 X104.643 Y113.335 E.06052
G1 X103.767 Y112.29 E.06048
G1 X103.573 Y111.35 E.04257
G1 X103.573 Y98.65 E.56331
G1 X103.965 Y97.343 E.06052
G1 X105.01 Y96.467 E.06048
G1 X105.95 Y96.273 E.04257
G1 X144.05 Y96.273 E1.68992
G1 X145.357 Y96.665 E.06052
G1 X146.233 Y97.71 E.06048
G1 X146.427 Y98.65 E.04257
G1 X146.427 Y111.35 E.56331
M73 Q5 S15
G1 X146.035 Y112.657 E.06052
M73 P5 R15
G1 X144.99 Y113.533 E.06048
G1 X144.05 Y113.727 E.04257
G1 X108.552 Y113.727 E1.57451
; printing object MCE_hashioki.stl id:0 copy 0
;WIPE_START
G1 F8640
G1 X108.492 Y113.727 E-.01385
G1 X105.95 Y113.727 E-.58695
G1 X105.124 Y113.479 E-.1992
;WIPE_END
G1 Z.9 F720
G1 X137.879 Y99.436 F10800
G1 Z.5 F720
G1 E.8 F2100
M204 S800
;TYPE:Perimeter
;WIDTH:0.5
G1 F1611.843
G1 X138.493 Y99.436 E.03336
G1 F1774.579
G1 X143.05 Y99.436 E.24759
G1 F1800
G1 X143.264 Y99.436 E.01163
G1 X143.264 Y102.188 E.14952
G1 X143.264 Y110.564 E.45509
G1 X143.05 Y110.564 E.01163
G1 F1774.579
G1 X138.493 Y110.564 E.24759
G1 F1613.474
G1 X137.915 Y110.564 E.0314
G1 F1578.366
G1 X137.759 Y110.507 E.00902
G1 F1570.529
G1 X137.759 Y99.493 E.59842
G1 F1576.588
G1 X137.825 Y99.462 E.00396
M204 S1000
G1 X137.799 Y98.95 F10800
M204 S800
;TYPE:External perimeter
;WIDTH:0.6
G1 F1603.417
G1 X138.693 Y98.95 E.05972
G1 F1751.346
G1 X142.85 Y98.95 E.27771
G1 F1799.111
G1 X143.75 Y98.95 E.06012
G1 X143.75 Y102.188 E.21632
G1 X143.75 Y111.05 E.59203
G1 X142.85 Y111.05 E.06012
G1 F1751.346
G1 X138.693 Y111.05 E.27771
G1 F1603.417
G1 X137.769 Y111.05 E.06173
G1 F1200
G1 X137.493 Y110.917 E.02047
G1 F900
G1 X137.293 Y110.821 E.01482
M204 S1000
;TYPE:Overhang perimeter
G1 X137.274 Y110.812 E.0014
G1 X137.274 Y99.188 E.77655
G1 X137.293 Y99.179 E.0014
M204 S800
;TYPE:External perimeter
G1 X137.493 Y99.083 E.01482
G1 F1200
G1 X137.742 Y98.963 E.01847
M204 S1000
;WIPE_START
G1 F8640
G1 X137.799 Y98.95 E-.0135
G1 X138.693 Y98.95 E-.20643
;WIPE_END
G1 E-.58007 F2100
G1 Z.9 F720
G1 X138.27 Y99.863 F10800
G1 Z.5 F720
G1 E.8 F2100
;TYPE:Solid infill
;WIDTH:0.605691
G1 F2268
G1 X138.222 Y99.815 E.00458
G1 X138.156 Y99.833 E.00462
G1 X138.139 Y99.898 E.00454
G1 X138.187 Y99.946 E.00458
G1 X138.252 Y99.928 E.00455
;WIDTH:0.5
G1 X138.151 Y100.624 E.03821
G1 X138.948 Y99.828 E.0612
G1 X139.047 Y99.75 E.00685
;WIDTH:0.45219
G1 X139.145 Y99.672 E.00606
;WIDTH:0.404381
G1 X139.104 Y99.683 E.0018
G1 X139.085 Y99.612 E.00312
G1 X139.156 Y99.631 E.00312
;WIDTH:0.5
G1 X139.564 Y99.828 E.02462
G1 X138.151 Y101.24 E.10853
G1 X138.151 Y101.856 E.03347
G1 X140.18 Y99.828 E.15587
G1 X140.796 Y99.828 E.03347
G1 X138.151 Y102.472 E.2032
G1 X138.151 Y103.088 E.03347
G1 X141.412 Y99.828 E.25053
G1 X142.028 Y99.828 E.03347
G1 X138.151 Y103.704 E.29786
G1 X138.151 Y104.321 E.03352
G1 X142.644 Y99.828 E.34523
G1 X142.872 Y100.216 E.02445
G1 X138.151 Y104.937 E.36275
G1 X138.151 Y105.553 E.03347
G1 X142.872 Y100.832 E.36275
G1 X142.872 Y101.448 E.03347
G1 X138.151 Y106.169 E.36275
G1 X138.151 Y106.785 E.03347
G1 X142.872 Y102.064 E.36275
G1 X142.872 Y102.68 E.03347
G1 X138.151 Y107.401 E.36275
G1 X138.151 Y108.017 E.03347
G1 X142.872 Y103.296 E.36275
G1 X142.872 Y103.912 E.03347
G1 X138.151 Y108.633 E.36275
G1 X138.151 Y109.249 E.03347
G1 X142.872 Y104.528 E.36275
G1 X142.872 Y105.144 E.03347
G1 X138.151 Y109.865 E.36275
G1 X138.127 Y110.058 E.01057
;WIDTH:0.45219
G1 X138.102 Y110.252 E.00946
;WIDTH:0.404381
G1 X138.031 Y110.233 E.00312
G1 X138.05 Y110.304 E.00312
G1 X138.091 Y110.293 E.0018
;WIDTH:0.5
G1 X138.46 Y110.172 E.0211
G1 X142.872 Y105.76 E.33901
G1 X142.872 Y106.376 E.03347
G1 X139.076 Y110.172 E.29168
G1 X139.692 Y110.172 E.03347
G1 X142.872 Y106.992 E.24435
G1 X142.872 Y107.608 E.03347
G1 X140.308 Y110.172 E.19701
G1 X140.924 Y110.172 E.03347
G1 X142.872 Y108.224 E.14968
G1 X142.872 Y108.841 E.03352
G1 X141.541 Y110.172 E.10227
G1 X142.019 Y110.388 E.0285
M73 Q6 S15
;WIDTH:0.404381
G1 X141.978 Y110.399 E.0018
G1 X141.959 Y110.328 E.00312
G1 X142.03 Y110.347 E.00312
;WIDTH:0.45219
G1 X142.094 Y110.26 E.00522
;WIDTH:0.5
G1 X142.157 Y110.172 E.00588
G1 X142.872 Y109.457 E.05494
G1 X142.98 Y109.388 E.00696
;WIDTH:0.45219
G1 X143.088 Y109.319 E.0062
;WIDTH:0.404381
G1 X143.047 Y109.33 E.0018
G1 X143.028 Y109.259 E.00312
G1 X143.099 Y109.278 E.00312
G1 X142.903 Y110.127 F10800
;WIDTH:0.558383
G1 F2268
G1 X142.859 Y110.084 E.00379
G1 X142.799 Y110.099 E.00381
G1 X142.784 Y110.159 E.00381
G1 X142.827 Y110.203 E.00379
G1 X142.887 Y110.187 E.00383
;WIPE_START
G1 F8640
G1 X142.827 Y110.203 E-.01434
G1 X142.784 Y110.159 E-.01421
G1 X142.799 Y110.099 E-.01428
G1 X142.859 Y110.084 E-.01428
G1 X142.903 Y110.127 E-.01421
;WIPE_END
G1 E-.72868 F2100
G1 Z.9 F720
G1 X112.121 Y110.564 F10800
G1 Z.5 F720
M73 P6 R15
G1 E.8 F2100
M204 S800
;TYPE:Perimeter
;WIDTH:0.5
G1 F1612.314
G1 X111.507 Y110.564 E.03336
G1 F1774.643
G1 X106.95 Y110.564 E.24759
G1 F1800
G1 X106.736 Y110.564 E.01163
G1 X106.736 Y99.436 E.60462
G1 X106.95 Y99.436 E.01163
G1 F1774.618
G1 X111.507 Y99.436 E.24759
G1 F1613.766
G1 X112.085 Y99.436 E.0314
G1 F1578.713
G1 X112.241 Y99.493 E.00902
G1 F1570.888
G1 X112.241 Y99.591 E.00532
G1 F1571.104
G1 X112.241 Y110.507 E.5931
G1 F1577.148
G1 X112.175 Y110.538 E.00396
M204 S1000
G1 X112.189 Y111.05 F10800
M204 S800
;TYPE:External perimeter
;WIDTH:0.6
G1 F1603.91
G1 X111.307 Y111.05 E.05892
G1 F1751.468
G1 X107.15 Y111.05 E.27771
G1 F1799.111
G1 X106.25 Y111.05 E.06012
G1 X106.25 Y98.95 E.80834
G1 X107.15 Y98.95 E.06012
G1 F1751.422
G1 X111.307 Y98.95 E.27771
G1 F1603.725
G1 X112.231 Y98.95 E.06173
G1 F1200
G1 X112.507 Y99.083 E.02047
G1 F900
G1 X112.707 Y99.179 E.01482
M204 S1000
;TYPE:Overhang perimeter
G1 X112.726 Y99.188 E.0014
G1 X112.726 Y99.591 E.02692
G1 X112.726 Y110.812 E.74962
G1 X112.707 Y110.821 E.0014
M73 P6 R14
M204 S800
;TYPE:External perimeter
G1 X112.507 Y110.917 E.01482
G1 F1200
G1 X112.247 Y111.043 E.0193
M204 S1000
;WIPE_START
G1 F8640
G1 X112.189 Y111.05 E-.01349
G1 X111.307 Y111.05 E-.20366
;WIPE_END
G1 E-.58285 F2100
G1 Z.9 F720
G1 X107.246 Y99.863 F10800
G1 Z.5 F720
G1 E.8 F2100
;TYPE:Solid infill
;WIDTH:0.605691
G1 F2268
G1 X107.198 Y99.815 E.00458
G1 X107.133 Y99.833 E.00455
G1 X107.115 Y99.898 E.00455
G1 X107.163 Y99.946 E.00458
G1 X107.228 Y99.928 E.00455
;WIDTH:0.5
G1 X107.128 Y100.624 E.0382
G1 X107.924 Y99.828 E.06116
G1 X108.54 Y99.828 E.03347
G1 X107.128 Y101.24 E.1085
G1 X107.128 Y101.856 E.03347
G1 X109.156 Y99.828 E.15583
G1 X109.772 Y99.828 E.03347
G1 X107.128 Y102.472 E.20316
G1 X107.128 Y103.088 E.03347
G1 X110.388 Y99.828 E.25049
G1 X111.004 Y99.828 E.03347
G1 X107.128 Y103.704 E.29782
G1 X107.128 Y104.321 E.03352
G1 X111.621 Y99.828 E.34523
G1 X111.849 Y100.216 E.02445
M73 Q6 S14
G1 X107.128 Y104.937 E.36275
G1 X107.128 Y105.553 E.03347
G1 X111.849 Y100.832 E.36275
G1 X111.849 Y101.448 E.03347
G1 X107.128 Y106.169 E.36275
G1 X107.128 Y106.785 E.03347
G1 X111.849 Y102.064 E.36275
G1 X111.849 Y102.68 E.03347
G1 X107.128 Y107.401 E.36275
G1 X107.128 Y108.017 E.03347
G1 X111.849 Y103.296 E.36275
G1 X111.849 Y103.912 E.03347
G1 X107.128 Y108.633 E.36275
G1 X107.128 Y109.249 E.03347
G1 X111.849 Y104.528 E.36275
G1 X111.849 Y105.144 E.03347
G1 X107.128 Y109.865 E.36275
